X:1
T:Appleton, LM
T:Appleton, LM
T:William Boyce (1710-1779)
T:Public Domain Courtesy of the Cyber Hymnal™
C:William Boyce (1710-1779)
Z:Public Domain
Z:Courtesy of the Cyber Hymnal™
%%score ( 1 2 ) ( 3 4 )
L:1/8
Q:1/4=105
M:4/4
K:F
V:1 treble 
V:2 treble 
V:3 bass 
V:4 bass 
V:1
 [Fc]2 [Fc][Fc] [Fc]3 [Fc] | F2 [EG]2 [FA]4 | [Ac]2 [Ac][Gc] [Ff]2 [Ge]2 | [Ad]2 d2 [Ec]4 | %4
 [Ac]2 [Ac][Gc] [Fc]3 [Fc] | [EB]2 [FA]2 [Fd]4 | [Fc]2 [Fc][Fc] [EB]2 [FA]2 | [FG]2 [EG]2 F4 |] %8
V:2
 x8 | F2 x6 | x8 | x2 (GF) x4 | x8 | x8 | x8 | x4 F4 |] %8
V:3
 [F,A,]2 [F,A,][F,A,] [F,A,]3 [F,A,] | [A,C]2 C2 [F,C]4 | [F,C]2 [F,C][E,C] (A,=B,) [C,C]2 | %3
 [F,C]2 [G,=B,]2 [C,C]4 | [F,C]2 [F,C][B,E] [A,F]3 [A,C] | [G,C]2 [F,C]2 B,4 | %6
 [A,C]2 [A,C][A,C] [G,C]2 [F,C]2 | [B,,D]2 (CB,) [F,A,]4 |] %8
V:4
 x8 | x2 C2 x4 | x4 D,2 x2 | x8 | x8 | x4 B,4 | x8 | x2 C,2 x4 |] %8

